X:1
T:Jasper en Loes
T:polka
C:Jan Alexander Stryckers
O:Lier VL-B
Z:jan.stryckers@lycos.nl
R:polka
H:du ludantaj katoj / two cats playing
P:(AB)n A
M:2/4
L:1/8
Q:1/4=120
K:C
V:1
P:[A]
|: "C"e2g2 | "G"fdBG-| GBdc | "C"eGcd | e2g2 | "G"fdBA | [1GABG | ABcd :| [2GABG | AB"C"!fine!c2 |]
P:[B]
|: "G"BAGB | AGAB | "C"cBce | [1g^fg2 | "F"fedf | "G"edcd |
 "C"e2c2 | A2G2 :| [2"C"g^fge | "F"fgad | efBc | "G"dGAB | "C"c3z |]
V:2
|: cGEc | BAGF-|  FGFG | c2G2 | cGEc | BAG2 | [1Bcde | fdAB :| [2BcdB | FGE2 |]
|: DEF2 | DED2 | EFGc | [1edcA | AcBA | cBAB | cAGE | F2E2 :| [2cdcG | A2F2 | G2F2 | G2F2 | E3z |]
